X:1
T:Eng. Pols
T:(Totakt-pols, nr. JCN-112)
S:efter J C Nielsen
R:Totakt-pols
O:Ribe amt, Danmark
N:Lt nr. 9 p CD:n "Totakt-pols" av ke Persson, Ethel Wieslander m fl. Till CD:n finns ett nothfte dr den har beteckningen JCN-112. Danmark|Fler ltar frn Danmark...
M:2/4
L:1/16
K:G
|: g2g2d2d2 | BcdB G2G2 | ABcA F2A2 | GABc d2d2 | g2g2d2d2 | BcdB G2G2 | ABcA F2A2 | G4 z4 :|
|: g2g2b2b2 | gfaf d2d2 | g2g2b2b2 | fgaf d2d2 | g2g2d2d2 | BcdB g2g2 | ABcA F2A2 | G4 z4 :|
